!!!COM: Stravinsky, Igor (Fyodorovich)
!!!OTL: Perséphone (Persephone), Melodrama in Three Scenes for Solo Tenor, Choir and Orchestra
!!!OMV: II: Perséphone aux enfers (Persephone in the Underworld)
!!!example: 392
!!!work: Str-33
**kern	**dynam	**kern	**dynam	**kern	**kern	**kern	**kern	**dynam
*grp:A	*grp:A	*grp:A	*grp:A	*grp:A	*grp:B	*grp:B	*grp:A	*grp:A
*part6	*part6	*part5	*part5	*part4	*part3	*part2	*part1	*part1
*staff6	*	*staff5	*	*staff4	*staff3	*staff2	*staff1	*
*I"Violoncello	*	*I"Violoncello	*	*I"Viola	*I"Violin II	*I"Violin I	*I"Treble Solo	*
*I'Vc.	*	*I'Vc.	*	*I'Vla.	*I'Vln. II	*I'Vln. I	*I'Tr. Solo	*
*clefF4	*	*clefF4	*	*clefC3	*clefG2	*clefG2	*clefG2	*
*k[f#c#]	*	*k[f#c#]	*	*k[f#c#]	*k[f#c#]	*k[f#c#]	*k[f#c#]	*
*D:	*	*D:	*	*D:	*D:	*D:	*D:	*
*M2/4	*	*M2/4	*	*M2/4	*M2/4	*M2/4	*M2/4	*
*MM60	*	*MM60	*	*MM60	*MM60	*MM60	*MM60	*
=64	=64	=64	=64	=64	=64	=64	=64	=64
!LO:TX:t=pizz.	!	!	!	!	!	!	!	!
!LO:TX:t=arco	!	!LO:TX:t=pizz.	!	!	!	!	!	!
*^	*	*	*	*	*	*	*	*
[2D	[4DD	p	[4DD	p	4r	8r	8r	8dL	.
.	.	.	.	.	.	8fff#'	4f# 4b	8eJ	.
.	4r	.	4r	.	(4F#	8r	.	8f#L	.
.	.	.	.	.	.	8ff#'	[8B [8f#	8gJ	<
*v	*v	*	*	*	*	*	*	*	*
=65	=65	=65	=65	=65	=65	=65	=65	=65
*M3/4	*	*M3/4	*	*M3/4	*M3/4	*M3/4	*M3/4	*
*^	*	*	*	*	*	*	*	*
4D]	2r	.	4r	.	4d	8r	8B] 8f#]	8aL	.
.	.	.	.	.	.	8g	4go	[8bJ	[ >
4r	.	.	4r	.	4E)	8r	.	4b]	.
.	.	.	.	.	.	8fff#'	4f# 4b	.	.
[4C#	[4C#	.	[4CC#	.	4r	8r	.	8eeL	]
.	.	.	.	.	.	8ff#'	[8B [8f#	8dd#XJ	.
*v	*v	*	*	*	*	*	*	*	*
=66	=66	=66	=66	=66	=66	=66	=66	=66
*M2/4	*	*M2/4	*	*M2/4	*M2/4	*M2/4	*M2/4	*
*^	*	*	*	*	*	*	*	*
2C#_	2r	.	2r	.	(4G	8r	8B] 8f#]	4b	.
.	.	.	.	.	.	8g	4go	.	.
.	.	.	.	.	4e	8r	.	8gL	.
.	.	.	.	.	.	8bb	[8B [8e	8aJ	.
*v	*v	*	*	*	*	*	*	*	*
=67	=67	=67	=67	=67	=67	=67	=67	=67
*M3/4	*	*M3/4	*	*M3/4	*M3/4	*M3/4	*M3/4	*
*^	*	*	*	*	*	*	*	*
4C#]	4r	.	4r	.	4F#)	8r	8B] 8e]	4b	.
.	.	.	.	.	.	8fff#'	4f# 4b	.	.
[2BB	[4BB	.	[4BB	.	4r	8r	.	8eeL	.
.	.	.	.	.	.	8ff#'	4B 4f#	8dd#XJ	.
.	4r	.	4r	.	(4E	8r	.	8bL	.
.	.	.	.	.	.	8g	[8go	8gJ	.
*v	*v	*	*	*	*	*	*	*	*
=68	=68	=68	=68	=68	=68	=68	=68	=68
*M2/4	*	*M2/4	*	*M2/4	*M2/4	*M2/4	*M2/4	*
*^	*	*	*	*	*	*	*	*
2BB]	2r	.	2r	.	4c#	8r	8g]	8f#L	.
.	.	.	.	.	.	8ff#'	4B 4f#	8eJ	.
.	.	.	.	.	4D)	8r	.	4f#	.
.	.	.	.	.	.	8bb	[8B [8e	.	.
=69	=69	=69	=69	=69	=69	=69	=69	=69	=69
[2AA	[4AA	.	[4AA	.	4r	8r	8B] 8e]	8dL	.
.	.	.	.	.	.	8fff#'	4f# 4b	8eJ	.
.	4r	.	4r	.	(4F#	8r	.	8f#L	.
.	.	.	.	.	.	8ff#'	[8B [8f#	8gJ	<
*v	*v	*	*	*	*	*	*	*	*
=70	=70	=70	=70	=70	=70	=70	=70	=70
!!linebreak:original
*M3/4	*	*M3/4	*	*M3/4	*M3/4	*M3/4	*M3/4	*
*^	*	*	*	*	*	*	*	*
2AA]	2r	.	4r	.	4d	8r	8B] 8f#]	8aL	.
.	.	.	.	.	.	8g	4go	[8bJ	[ >
.	.	.	4r	.	4E)	8r	.	4b]	.
.	.	.	.	.	.	8ff#'	4B 4e	.	.
[4GG	[4GG	.	[4GG	.	4r	8r	.	8eeL	]
.	.	.	.	.	.	8fff#'	[8f# [8b	8dd#XJ	.
*v	*v	*	*	*	*	*	*	*	*
=71	=71	=71	=71	=71	=71	=71	=71	=71
*M2/4	*	*M2/4	*	*M2/4	*M2/4	*M2/4	*M2/4	*
*^	*	*	*	*	*	*	*	*
2GG_	2r	.	2r	.	(4G	8r	8f#] 8b]	4b	.
.	.	.	.	.	.	8ff#'	4B 4f#	.	.
.	.	.	.	.	4e	8r	.	8gL	.
.	.	.	.	.	.	8g	[8go	8aJ	.
*v	*v	*	*	*	*	*	*	*	*
=72	=72	=72	=72	=72	=72	=72	=72	=72
*M3/4	*	*M3/4	*	*M3/4	*M3/4	*M3/4	*M3/4	*
*^	*	*	*	*	*	*	*	*
4GG]	4r	.	4r	.	4F#)	8r	8go]	4b	.
.	.	.	.	.	.	8fff#'	4f# 4b	.	.
[2AA	[4AA	.	[4AA	.	4r	8r	.	8eeL	.
.	.	.	.	.	.	8ff#'	4B 4f#	8dd#XJ	.
.	4r	.	4r	.	(4A	8r	.	8bL	.
.	.	.	.	.	.	8g	[8go	8gJ	.
*v	*v	*	*	*	*	*	*	*	*
=73	=73	=73	=73	=73	=73	=73	=73	=73
*M2/4	*	*M2/4	*	*M2/4	*M2/4	*M2/4	*M2/4	*
*^	*	*	*	*	*	*	*	*
2AA]	2r	.	2r	.	4f#	8r	8go]	8f#L	.
.	.	.	.	.	.	8bb	4B 4e	8eJ	.
.	.	.	.	.	4G)	8r	.	4f#	.
.	.	.	.	.	.	8fff#'	[8f# [8b	.	.
=74	=74	=74	=74	=74	=74	=74	=74	=74	=74
[2BB	[4BB	.	[4BB	.	4r	8r	8f#] 8b]	8dL	.
.	.	.	.	.	.	8ff#'	4B 4f#	8eJ	.
.	4r	.	4r	.	(4A	8r	.	8f#L	.
.	.	.	.	.	.	8g	[8go	8gJ	<
*v	*v	*	*	*	*	*	*	*	*
=75	=75	=75	=75	=75	=75	=75	=75	=75
*M3/4	*	*M3/4	*	*M3/4	*M3/4	*M3/4	*M3/4	*
*^	*	*	*	*	*	*	*	*
2BB]	2r	.	4r	.	4f#	8r	8go]	8aL	.
.	.	.	.	.	.	8ff#'	4B 4f#	[8bJ	[ >
.	.	.	4r	.	4G)	8r	.	4b]	.
.	.	.	.	.	.	8bb	4B 4e	.	.
[4C#	[4Cn	.	[4Cn	.	4r	8r	.	8eeL	]
.	.	.	.	.	.	8fff#'	[8f# [8b	8dd#XJ	.
*v	*v	*	*	*	*	*	*	*	*
=76	=76	=76	=76	=76	=76	=76	=76	=76
!!pagebreak:original
*M2/4	*	*M2/4	*	*M2/4	*M2/4	*M2/4	*M2/4	*
*^	*	*	*	*	*	*	*	*
2Cn_	2r	.	2r	.	(4B	8r	8f#] 8b]	4b	.
.	.	.	.	.	.	8ff#'	4B 4f#	.	.
.	.	.	.	.	4e	8r	.	8gL	.
.	.	.	.	.	.	8g	[8go	8aJ	.
*v	*v	*	*	*	*	*	*	*	*
=77	=77	=77	=77	=77	=77	=77	=77	=77
*M3/4	*	*M3/4	*	*M3/4	*M3/4	*M3/4	*M3/4	*
*^	*	*	*	*	*	*	*	*
4C]	4r	.	4r	.	4F#)	8r	8go]	4b	.
.	.	.	.	.	.	8bb	4B 4e	.	.
[2D	[4D	.	[4D	.	4r	8r	.	8eeL	.
.	.	.	.	.	.	8fff#'	4f# 4b	8dd#XJ	.
.	4r	.	4r	.	(4A	8r	.	8bL	.
.	.	.	.	.	.	8ff#'	[8B [8f#	8gJ	.
*v	*v	*	*	*	*	*	*	*	*
=78	=78	=78	=78	=78	=78	=78	=78	=78
*M2/4	*	*M2/4	*	*M2/4	*M2/4	*M2/4	*M2/4	*
*^	*	*	*	*	*	*	*	*
2D]	2r	.	2r	.	4f#	8r	8B] 8f#]	8f#L	.
.	.	.	.	.	.	8g	4go	8eJ	.
.	.	.	.	.	4E)	8r	.	4f#	.
.	.	.	.	.	.	8fff#'	[8f# [8b	.	.
=79	=79	=79	=79	=79	=79	=79	=79	=79	=79
[2C#	[4C#	.	[4C#	.	4r	8r	8f#] 8b]	8dL	.
.	.	.	.	.	.	8ff#'	4B 4f#	8eJ	.
.	4r	.	4r	.	(4f#	8r	.	8f#L	.
.	.	.	.	.	.	8g	[8go	8gJ	<
*v	*v	*	*	*	*	*	*	*	*
=80	=80	=80	=80	=80	=80	=80	=80	=80
*M3/4	*	*M3/4	*	*M3/4	*M3/4	*M3/4	*M3/4	*
*^	*	*	*	*	*	*	*	*
4C#]	2r	.	4r	.	4dd	8r	8go]	8aL	.
.	.	.	.	.	.	8bb	4B 4e	[8bJ	[ >
4r	.	.	4r	.	4e)	8r	.	4b]	.
.	.	.	.	.	.	8fff#'	4f# 4b	.	.
[4C#	[4Cn	.	[4Cn	.	4r	8r	.	8eeL	]
.	.	.	.	.	.	8ff#'	[8B [8f#	8dd#XJ	.
*v	*v	*	*	*	*	*	*	*	*
=81	=81	=81	=81	=81	=81	=81	=81	=81
*M2/4	*	*M2/4	*	*M2/4	*M2/4	*M2/4	*M2/4	*
*^	*	*	*	*	*	*	*	*
2C_	2r	.	2r	.	(4e	8r	8B] 8f#]	4b	.
.	.	.	.	.	.	8g	4go	.	.
.	.	.	.	.	4cc#	8r	.	8gL	.
.	.	.	.	.	.	8ff#'	[8B [8f#	8aJ	.
*v	*v	*	*	*	*	*	*	*	*
=82	=82	=82	=82	=82	=82	=82	=82	=82
!!linebreak:original
*M3/4	*	*M3/4	*	*M3/4	*M3/4	*M3/4	*M3/4	*
*^	*	*	*	*	*	*	*	*
4C]	4r	.	4r	.	4d)	8r	8B] 8f#]	4b	.
.	.	.	.	.	.	8bb	4B 4e	.	.
[2BB	[4BB	.	[4BB	.	4r	8r	.	8eeL	.
.	.	.	.	.	.	8fff#'	4f# 4b	8dd#XJ	.
.	4r	.	4r	.	(4d	8r	.	8bL	.
.	.	.	.	.	.	8ff#'	[8B [8f#	8gJ	.
*v	*v	*	*	*	*	*	*	*	*
=83	=83	=83	=83	=83	=83	=83	=83	=83
*M2/4	*	*M2/4	*	*M2/4	*M2/4	*M2/4	*M2/4	*
*^	*	*	*	*	*	*	*	*
2BB]	2r	.	2r	.	4b	8r	8B] 8f#]	8f#L	.
.	.	.	.	.	.	8g	4go	8eJ	.
.	.	.	.	.	4c#)	8r	.	4f#	.
.	.	.	.	.	.	8bb	[8B [8e	.	.
=84	=84	=84	=84	=84	=84	=84	=84	=84	=84
[2BB	[4BB	.	[4BB	.	4r	8r	8B] 8e]	8dL	.
.	.	.	.	.	.	8fff#'	4f# 4b	8eJ	.
.	4r	.	4r	.	(4F#	8r	.	8f#L	.
.	.	.	.	.	.	8ff#'	[8B [8f#	8gJ	<
*v	*v	*	*	*	*	*	*	*	*
=85	=85	=85	=85	=85	=85	=85	=85	=85
*M3/4	*	*M3/4	*	*M3/4	*M3/4	*M3/4	*M3/4	*
*^	*	*	*	*	*	*	*	*
2BB]	2r	.	4r	.	4d	8r	8B] 8f#]	8aL	.
.	.	.	.	.	.	8g	4go	[8bJ	[ >
.	.	.	4r	.	4E)	8r	.	4b]	.
.	.	.	.	.	.	8fff#'	4f# 4b	.	.
[4BB	[4BB	.	[4BB	.	4r	8r	.	8eeL	]
.	.	.	.	.	.	8ff#'	[8B [8f#	8dd#XJ	.
*v	*v	*	*	*	*	*	*	*	*
=86	=86	=86	=86	=86	=86	=86	=86	=86
!!pagebreak:original
*M2/4	*	*M2/4	*	*M2/4	*M2/4	*M2/4	*M2/4	*
*^	*	*	*	*	*	*	*	*
2BB_	2r	.	2r	.	(4G	8r	8B] 8f#]	4b	.
.	.	.	.	.	.	8g	4go	.	.
.	.	.	.	.	4e	8r	.	8gL	.
.	.	.	.	.	.	8bb	[8B [8e	8aJ	.
*v	*v	*	*	*	*	*	*	*	*
=87	=87	=87	=87	=87	=87	=87	=87	=87
*M3/4	*	*M3/4	*	*M3/4	*M3/4	*M3/4	*M3/4	*
*^	*	*	*	*	*	*	*	*
4BB]	4r	.	4r	.	4F#)	8r	8B] 8e]	4b	.
.	.	.	.	.	.	8fff#'	4f# 4b	.	.
[2BB	[4BB	.	[4BB	.	4r	8r	.	8eeL	.
.	.	.	.	.	.	8ff#'	4B 4f#	8dd#XJ	.
.	4r	.	4r	.	(4E	8r	.	8bL	.
.	.	.	.	.	.	8g	[8go	8gJ	.
*v	*v	*	*	*	*	*	*	*	*
=88	=88	=88	=88	=88	=88	=88	=88	=88
*M2/4	*	*M2/4	*	*M2/4	*M2/4	*M2/4	*M2/4	*
*^	*	*	*	*	*	*	*	*
2BB]	2r	.	2r	.	4c#	8r	8go]	8f#L	.
.	.	.	.	.	.	8ff#'	4B 4f#	8eJ	.
.	.	.	.	.	4D)	8r	.	4f#	.
.	.	.	.	.	.	8bb	[8B [8e	.	.
*v	*v	*	*	*	*	*	*	*	*
=	=	=	=	=	=	=	=	=
*-	*-	*-	*-	*-	*-	*-	*-	*-
!!!system-decoration: s1[(s2,s3,s4,s5,s6)]
!!!CDT: 1882/06/17-1971/04/06
!!!CBL: Lomonosov (Oranienbaum), Russia
!!!CDL: New York, United States
!!!CNT: Russian, French, American
!!!AGN: Stage; Theatrical
!!!MCN: Stravinsky, Igor
!!!MDT: 1934/04/30
!!!MGN: Orchestre de l'Opéra
!!!MLC: Paris, France
!!!MPD: 1934
!!!MPN: Maison, René; Rubinstein, Ida
!!!ODT: 1934
!!!PDT: 1934
!!!excerpt-start-measure: 64
!!!excerpt-end-measure: 88
!!!excerpt-start-time: 3:47
!!!excerpt-end-time: 4:48
!!!EEV: 2020/01/22
!!!ONB: Converted from MusicXML on 2020/01/22
